X: 8820
T: Cuil Aodha, The
R: polka
M: 2/4
K: Amajor
Ac EF|A>A Af|ec BA|e/f/e/c/ Bc/B/|
Ac EF|A>A Af|ec BA/B/|1 cA AE:|2 cA A||
B|ce ce|a2 af|ec BA|e/f/e/c/ BA|
[1 ce ce|a2 af|ec BA/B/|cA A:|
[2 Ac EF|A>A Af|ec BA/B/|cA A||

